img/idea/3_white.svg

<svg width="57" height="58" viewBox="0 0 57 58" fill="none" xmlns="http://www.w3.org/2000/svg">
<path d="M50.2091 13.3215L41.7606 20.9316C43.1839 23.2213 44.0061 25.922 44.0061 28.8158C44.0061 31.5224 43.2871 34.0611 42.0302 36.2505L50.6658 44.0286C53.5773 39.744 55.279 34.5709 55.279 29C55.279 23.1447 53.399 17.7285 50.2091 13.3215Z" stroke="white" stroke-width="3" stroke-miterlimit="10"/>
<path d="M22.5033 15.3681C24.4806 14.403 26.704 13.8608 29.0526 13.8608C31.4012 13.8608 33.4639 14.3647 35.3867 15.2664L44.2124 7.31595C39.7996 4.11132 34.3716 2.22095 28.5001 2.22095C22.6286 2.22095 17.5542 3.9905 13.2209 7.00654L22.5033 15.3681Z" stroke="white" stroke-width="3" stroke-miterlimit="10"/>
<path d="M35.8848 42.122C33.8368 43.1755 31.5147 43.7707 29.0526 43.7707C26.3799 43.7707 23.8707 43.0679 21.6989 41.8391L12.2898 50.3141C16.7895 53.7412 22.4061 55.7774 28.5001 55.7774C34.5941 55.7774 40.3315 53.697 44.8563 50.2021L35.8848 42.1205V42.122Z" stroke="white" stroke-width="3" stroke-miterlimit="10"/>
<path d="M15.7979 35.7466C14.712 33.675 14.0976 31.3176 14.0976 28.8158C14.0976 26.0016 14.8756 23.3701 16.2267 21.1217L7.10044 12.9001C3.72342 17.3822 1.72107 22.9561 1.72107 29C1.72107 34.6357 3.4641 39.8648 6.43741 44.1789L15.7979 35.7466Z" stroke="white" stroke-width="3" stroke-miterlimit="10"/>
<path d="M7.54022 7.59105L7.53923 7.59215C5.97296 9.33106 6.11291 12.0104 7.85182 13.5767L15.5995 20.5552C17.3385 22.1215 20.0178 21.9816 21.5841 20.2426L21.5851 20.2416C23.1514 18.5026 23.0114 15.8233 21.2725 14.257L13.5248 7.27846C11.7859 5.71219 9.10649 5.85214 7.54022 7.59105Z" stroke="white" stroke-width="3" stroke-miterlimit="10"/>
<path d="M36.2038 20.2319L36.2048 20.233C37.7711 21.9719 40.4504 22.1119 42.1893 20.5456L50.0104 13.501C51.7493 11.9347 51.8893 9.25536 50.323 7.51645L50.322 7.51535C48.7558 5.77644 46.0764 5.6365 44.3375 7.20277L36.5164 14.2474C34.7775 15.8136 34.6375 18.493 36.2038 20.2319Z" stroke="white" stroke-width="3" stroke-miterlimit="10"/>
<path d="M49.6894 48.8557L49.6904 48.8546C51.2567 47.1157 51.1167 44.4363 49.3778 42.8701L42.1829 36.3895C40.444 34.8232 37.7646 34.9632 36.1984 36.7021L36.1974 36.7032C34.6311 38.4421 34.7711 41.1215 36.51 42.6878L43.7048 49.1683C45.4437 50.7346 48.1231 50.5946 49.6894 48.8557Z" stroke="white" stroke-width="3" stroke-miterlimit="10"/>
<path d="M7.50675 48.8228L7.50774 48.8239C9.06149 50.5489 11.7194 50.6877 13.4444 49.134L20.6163 42.6741C22.3413 41.1204 22.4801 38.4624 20.9264 36.7374L20.9254 36.7363C19.3717 35.0113 16.7137 34.8725 14.9887 36.4262L7.81684 42.8861C6.09184 44.4398 5.95301 47.0978 7.50675 48.8228Z" stroke="white" stroke-width="3" stroke-miterlimit="10"/>
</svg>

<svg width="57" height="58" fill="none" xmlns="http://www.w3.org/2000/svg"><path d="m50.21 13.322-8.45 7.61a14.883 14.883 0 0 1 2.246 7.884 14.89 14.89 0 0 1-1.976 7.435l8.636 7.778A26.648 26.648 0 0 0 55.279 29c0-5.855-1.88-11.271-5.07-15.678Zm-27.707 2.046a14.893 14.893 0 0 1 6.55-1.507c2.348 0 4.41.504 6.334 1.405l8.825-7.95A26.645 26.645 0 0 0 28.5 2.221c-5.871 0-10.946 1.77-15.28 4.786l9.283 8.361Zm13.382 26.754a14.892 14.892 0 0 1-6.832 1.649c-2.673 0-5.182-.703-7.354-1.932l-9.41 8.475A26.66 26.66 0 0 0 28.5 55.777c6.094 0 11.831-2.08 16.356-5.575l-8.971-8.081v.001Zm-20.087-6.375a14.884 14.884 0 0 1-1.7-6.931c0-2.814.778-5.446 2.129-7.694L7.1 12.9A26.659 26.659 0 0 0 1.721 29a26.658 26.658 0 0 0 4.716 15.179l9.36-8.432Z" stroke="#fff" stroke-width="3" stroke-miterlimit="10"/><path d="M7.54 7.591v.001a4.237 4.237 0 0 0 .312 5.985l7.748 6.978a4.237 4.237 0 0 0 5.984-.312l.001-.001a4.238 4.238 0 0 0-.313-5.985l-7.747-6.979a4.238 4.238 0 0 0-5.985.313Zm28.664 12.641v.001a4.237 4.237 0 0 0 5.985.313L50.01 13.5a4.237 4.237 0 0 0 .313-5.985h-.001a4.237 4.237 0 0 0-5.985-.313l-7.82 7.044a4.237 4.237 0 0 0-.313 5.985ZM49.69 48.856v-.001a4.237 4.237 0 0 0-.312-5.985l-7.195-6.48a4.237 4.237 0 0 0-5.985.312v.001a4.238 4.238 0 0 0 .312 5.985l7.195 6.48a4.238 4.238 0 0 0 5.984-.312Zm-42.183-.033a4.204 4.204 0 0 0 5.937.311l7.172-6.46a4.204 4.204 0 0 0-5.628-6.248l-7.171 6.46a4.204 4.204 0 0 0-.31 5.937Z" stroke="#fff" stroke-width="3" stroke-miterlimit="10"/></svg>
